frontend/src/assets/icons/profile-card.svg

<svg width="28" height="23" viewBox="0 0 28 23" fill="none" xmlns="http://www.w3.org/2000/svg">
<path d="M24.85 0C25.6854 0 26.4866 0.331874 27.0774 0.922614C27.6681 1.51335 28 2.31457 28 3.15V19.257C28 20.0924 27.6681 20.8937 27.0774 21.4844C26.4866 22.0751 25.6854 22.407 24.85 22.407H3.15C2.73634 22.407 2.32672 22.3255 1.94455 22.1672C1.56237 22.0089 1.21512 21.7769 0.922614 21.4844C0.630109 21.1919 0.398082 20.8446 0.23978 20.4625C0.0814772 20.0803 0 19.6707 0 19.257V3.15C0 2.31457 0.331874 1.51335 0.922614 0.922614C1.51335 0.331874 2.31457 0 3.15 0H24.85ZM10.85 11.9H5.95C5.69627 11.9 5.45112 11.9919 5.2599 12.1587C5.06867 12.3254 4.94431 12.5558 4.9098 12.8072L4.9 12.95V13.6388L4.9112 13.79C5.138 15.3496 6.4428 16.1 8.4 16.1C10.2634 16.1 11.536 15.4196 11.8496 14.0084L11.8888 13.7914L11.9 13.6402V12.95C11.9 12.6963 11.8081 12.4511 11.6413 12.2599C11.4746 12.0687 11.2442 11.9443 10.9928 11.9098L10.85 11.9ZM22.05 12.5944H15.7528L15.61 12.6042C15.3587 12.6388 15.1284 12.7632 14.9617 12.9544C14.795 13.1456 14.7031 13.3907 14.7031 13.6444C14.7031 13.8981 14.795 14.1432 14.9617 14.3344C15.1284 14.5256 15.3587 14.65 15.61 14.6846L15.7528 14.6944H22.05L22.1928 14.6846C22.4441 14.65 22.6744 14.5256 22.8411 14.3344C23.0078 14.1432 23.0997 13.8981 23.0997 13.6444C23.0997 13.3907 23.0078 13.1456 22.8411 12.9544C22.6744 12.7632 22.4441 12.6388 22.1928 12.6042L22.05 12.5944ZM8.4 6.3028C7.84305 6.3028 7.3089 6.52405 6.91508 6.91788C6.52125 7.3117 6.3 7.84585 6.3 8.4028C6.3 8.95975 6.52125 9.4939 6.91508 9.88772C7.3089 10.2816 7.84305 10.5028 8.4 10.5028C8.95695 10.5028 9.4911 10.2816 9.88492 9.88772C10.2788 9.4939 10.5 8.95975 10.5 8.4028C10.5 7.84585 10.2788 7.3117 9.88492 6.91788C9.4911 6.52405 8.95695 6.3028 8.4 6.3028ZM22.05 7.7H15.7528L15.61 7.7098C15.3587 7.74438 15.1284 7.86878 14.9617 8.05999C14.795 8.25121 14.7031 8.49632 14.7031 8.75C14.7031 9.00368 14.795 9.24879 14.9617 9.44001C15.1284 9.63123 15.3587 9.75562 15.61 9.7902L15.7528 9.8H22.05L22.1928 9.7902C22.4441 9.75562 22.6744 9.63123 22.8411 9.44001C23.0078 9.24879 23.0997 9.00368 23.0997 8.75C23.0997 8.49632 23.0078 8.25121 22.8411 8.05999C22.6744 7.86878 22.4441 7.74438 22.1928 7.7098L22.05 7.7Z" fill="white"/>
</svg>

<svg width="28" height="23" fill="none" xmlns="http://www.w3.org/2000/svg"><path d="M24.85 0A3.15 3.15 0 0 1 28 3.15v16.107a3.15 3.15 0 0 1-3.15 3.15H3.15A3.15 3.15 0 0 1 0 19.257V3.15A3.15 3.15 0 0 1 3.15 0h21.7zm-14 11.9h-4.9a1.05 1.05 0 0 0-1.04.907l-.01.143v.689l.011.151c.227 1.56 1.532 2.31 3.489 2.31 1.863 0 3.136-.68 3.45-2.092l.039-.217.011-.15v-.691a1.05 1.05 0 0 0-.907-1.04l-.143-.01zm11.2.694h-6.297l-.143.01a1.05 1.05 0 0 0 0 2.08l.143.01h6.297l.143-.01a1.05 1.05 0 0 0 0-2.08l-.143-.01zM8.4 6.303a2.1 2.1 0 1 0 0 4.2 2.1 2.1 0 0 0 0-4.2zM22.05 7.7h-6.297l-.143.01a1.05 1.05 0 0 0 0 2.08l.143.01h6.297l.143-.01a1.05 1.05 0 0 0 0-2.08l-.143-.01z" fill="#fff"/></svg>
